src/assets/images/Registrate/Suche.svg

<?xml version="1.0" encoding="UTF-8"?>
<svg width="20px" height="16px" viewBox="0 0 20 16" version="1.1" xmlns="http://www.w3.org/2000/svg" xmlns:xlink="http://www.w3.org/1999/xlink">
    <!-- Generator: Sketch 52.4 (67378) - http://www.bohemiancoding.com/sketch -->
    <title>Suche</title>
    <desc>Created with Sketch.</desc>
    <g id="Page-1" stroke="none" stroke-width="1" fill="none" fill-rule="evenodd">
        <g id="Registrate" transform="translate(-1034.000000, -496.000000)" fill="#DFE2E6">
            <g id="Suche" transform="translate(1034.000000, 496.000000)">
                <path d="M2,0 L18,0 C19.1046,0 20,0.8954 20,2 L20,14.00003 C20,15.10453 19.1046,16.00003 18,16.00003 L2,16.00003 C0.89543,16.00003 0,15.10453 0,14.00003 L0,2 C0,0.8954 0.89543,0 2,0 Z M10,7.00003 L18,2 L2,2 L10,7.00003 Z M2,14.00003 L18,14.00003 L18,4.37 L10,9.35863 L2,4.37 L2,14.00003 Z" id="ic_mail"></path>
            </g>
        </g>
    </g>
</svg>

<svg xmlns="http://www.w3.org/2000/svg" width="20" height="16"><title>Suche</title><desc>Created with Sketch.</desc><g fill="none"><g fill="#DFE2E6"><g><path d="M2 0h16c1.1 0 2 .9 2 2v12c0 1.1-.9 2-2 2H2c-1.1 0-2-.9-2-2V2C0 .9.9 0 2 0zm8 7l8-5H2l8 5zm-8 7h16V4.37l-8 5-8-5V14z"/></g></g></g></svg>
